dist/assets/group-774.svg

<svg width="72" height="53" viewBox="0 0 72 53" fill="none" xmlns="http://www.w3.org/2000/svg">
<ellipse cx="35.7804" cy="26.3783" rx="35.2474" ry="26.0565" fill="url(#paint0_linear_216_2040)"/>
<path d="M53.5148 18.182C54.2111 19.0735 54.1177 20.1349 53.2704 20.9519L34.666 38.899C33.8987 39.6391 32.6353 40.0164 31.3435 39.8331C30.0785 39.6532 29.0754 38.9715 28.7274 38.0547L25.9745 30.812L25.6878 30.0587L24.9487 29.4985L17.8403 24.1148C16.9403 23.4335 16.6432 22.4505 17.065 21.5507C17.4825 20.6612 18.5295 20.0158 19.8205 19.8907L50.1477 16.9536C51.5285 16.8196 52.8187 17.2906 53.5148 18.182Z" fill="white"/>
<path d="M25.9748 30.812L28.7275 38.0547C29.0756 38.9716 30.0786 39.6532 31.3437 39.8331C32.6355 40.0165 33.8989 39.6391 34.6661 38.899L53.2705 20.9519C54.1179 20.1349 54.2112 19.0735 53.515 18.182L25.6881 30.0587L25.9748 30.812Z" fill="white"/>
<path d="M37.0119 25.2256C37.295 25.5881 37.1275 26.052 36.6364 26.2616L25.9749 30.812L25.6882 30.0586L24.949 29.4984L35.6105 24.948C36.1015 24.7385 36.7288 24.8631 37.0119 25.2256Z" fill="url(#paint1_linear_216_2040)"/>
<path d="M25.9746 30.8119L36.6362 26.2615C37.1272 26.052 37.2948 25.5881 37.0117 25.2256L25.6879 30.0586L25.9746 30.8119Z" fill="url(#paint2_linear_216_2040)"/>
<defs>
<linearGradient id="paint0_linear_216_2040" x1="50.5307" y1="1.78387" x2="32.8859" y2="61.9266" gradientUnits="userSpaceOnUse">
<stop stop-color="#747DEF"/>
<stop offset="1" stop-color="#5E3BE1"/>
</linearGradient>
<linearGradient id="paint1_linear_216_2040" x1="33.1695" y1="26.039" x2="33.8577" y2="27.9058" gradientUnits="userSpaceOnUse">
<stop stop-color="#747DEF"/>
<stop offset="1" stop-color="#5E3BE1"/>
</linearGradient>
<linearGradient id="paint2_linear_216_2040" x1="33.6678" y1="26.6773" x2="34.0378" y2="27.6089" gradientUnits="userSpaceOnUse">
<stop stop-color="#747DEF"/>
<stop offset="1" stop-color="#5E3BE1"/>
</linearGradient>
</defs>
</svg>

<svg width="72" height="53" fill="none" xmlns="http://www.w3.org/2000/svg"><ellipse cx="35.78" cy="26.378" rx="35.247" ry="26.056" fill="url(#paint0_linear_216_2040)"/><path d="M53.515 18.182c.696.892.603 1.953-.245 2.77L34.666 38.899c-.767.74-2.03 1.117-3.322.934-1.266-.18-2.269-.861-2.617-1.778l-2.753-7.243-.286-.753-.74-.56-7.108-5.384c-.9-.681-1.197-1.664-.775-2.564.418-.89 1.464-1.535 2.755-1.66l30.328-2.937c1.38-.134 2.67.337 3.367 1.228z" fill="#fff"/><path d="M25.975 30.812l2.752 7.243c.349.917 1.352 1.598 2.617 1.778 1.291.184 2.555-.194 3.322-.934l18.605-17.947c.847-.817.94-1.879.244-2.77L25.688 30.059l.287.753z" fill="#fff"/><path d="M37.012 25.226c.283.362.115.826-.376 1.036l-10.661 4.55-.287-.753-.739-.56 10.662-4.551c.49-.21 1.118-.085 1.4.278z" fill="url(#paint1_linear_216_2040)"/><path d="M25.975 30.812l10.661-4.55c.491-.21.659-.674.376-1.036l-11.324 4.833.287.753z" fill="url(#paint2_linear_216_2040)"/><defs><linearGradient id="paint0_linear_216_2040" x1="50.531" y1="1.784" x2="32.886" y2="61.927" gradientUnits="userSpaceOnUse"><stop stop-color="#747DEF"/><stop offset="1" stop-color="#5E3BE1"/></linearGradient><linearGradient id="paint1_linear_216_2040" x1="33.169" y1="26.039" x2="33.858" y2="27.906" gradientUnits="userSpaceOnUse"><stop stop-color="#747DEF"/><stop offset="1" stop-color="#5E3BE1"/></linearGradient><linearGradient id="paint2_linear_216_2040" x1="33.668" y1="26.677" x2="34.038" y2="27.609" gradientUnits="userSpaceOnUse"><stop stop-color="#747DEF"/><stop offset="1" stop-color="#5E3BE1"/></linearGradient></defs></svg>
